X:350
T:Highland Lassie 
C:Joe Buchanan's Scottish Tome - Page 147.3
I:147 3
Z:Carl Allison
R:March
L:1/8
M:C
K:G
D |: "G"GG GA/B/ | "C"GG GA/B/ | "C"c>B "G"AG | "A7"F/G/A/F/ "D"DE/F/ |
"G"GG GA/G/ | "G"GG "G7"GB | "Am"cd "D7"e/d/e/f/ |1 "G"g2 g D :|2 "G"g2 gd |]
|: "G"gd "G7"Bd | "C"cc "C"c/G/c/e/ | "A7"a>e ^c>e | "D7"dd de/f/ |
"G"gd "G7"Bd | "C"cc "Am"c>e | "G"dB "D7"cA |1 "G"G2 Gd :|2 "G"G3 G |]

